X:1
T:Dunmore Lasses, The
M:C|
L:1/8
%%printtempo 0
Q:160
R:Reel
K:G
~E3F GFGA|Beed Bee2|~E3F G2ed|BcBA GEED|
~E3F GFGA|Beed e3f|gefd edBc|dBAF GE~E2:|
|:gfeg fedc|Beed Beef|gfeg fedA|BcBA GE~E2|
g3e fedc|Beed e3f|gefd edBc|dBAF GEE2:|
